X:19
T:Friday Night (Through Monday)
M:4/4
L:1/8
C:Taz Tarry
S:Copyright B.Tarry, April 1985
R:Polka
Q:1/4=170
K:D
|:A2AB A2AB|A2AB AGFD|G2GAG2GA|G2GA GFED|
A2AB A2AB|A2AB AGFD|G2GAd2dA|BGAFD4:|
|:f2fed2d2|edcBA2A2|fffed2d2|edcde4|
f2fed2d2|edcBA2A2|d2dAB2BG|ABAFD4:|
|:a2aeg2ge|f2fd ecAc|a2aeg2ge|fdge a2a2|
a2aeg2ge|f2fd ecAc|d2dAB2BG|ABAF D4:|

